icons/electricity_fill.svg

<svg width="48" height="48" viewBox="0 0 48 48" fill="none" xmlns="http://www.w3.org/2000/svg">
<path fill-rule="evenodd" clip-rule="evenodd" d="M13.0699 26.2851C14.0324 27.4611 16.4803 31.8176 17 34H31C31.5198 31.8193 33.9648 27.4628 34.9273 26.2885C36.5762 24.2717 37.6099 21.8396 37.9094 19.2725C38.209 16.7053 37.7621 14.1074 36.6204 11.7782C35.4787 9.44891 33.6885 7.48299 31.4561 6.10687C29.2237 4.73075 26.6398 4.00041 24.0022 4C21.3646 3.99959 18.7806 4.72911 16.5477 6.10453C14.3149 7.47995 12.524 9.44531 11.3816 11.7742C10.2391 14.1031 9.79137 16.7008 10.0901 19.2681C10.3888 21.8354 11.4217 24.2678 13.0699 26.2851ZM25 12L19 21H23L23 27L29 18H25V12Z" fill="black"/>
<path d="M17 37C17 36.4477 17.4477 36 18 36H30C30.5523 36 31 36.4477 31 37C31 37.5523 30.5523 38 30 38H18C17.4477 38 17 37.5523 17 37Z" fill="black"/>
<path d="M31 40H17V42C17 43.1046 17.8954 44 19 44H29C30.1046 44 31 43.1046 31 42V40Z" fill="black"/>
</svg>

<svg
  xmlns="http://www.w3.org/2000/svg"
  width="24"
  height="24"
  viewBox="0 0 24 24"
  fill="none"
  stroke="currentColor"
  stroke-width="2"
  stroke-linecap="round"
  stroke-linejoin="round"
>
  <path
    fill-rule="evenodd"
    d="M13.07 26.285c.962 1.176 3.41 5.533 3.93 7.715h14c.52-2.18 2.965-6.537 3.927-7.712a13.57 13.57 0 0 0 2.982-7.015 13.47 13.47 0 0 0-1.289-7.495 13.8 13.8 0 0 0-5.164-5.671A14.2 14.2 0 0 0 24.002 4c-2.637 0-5.221.73-7.454 2.105a13.8 13.8 0 0 0-5.166 5.67 13.47 13.47 0 0 0-1.292 7.493c.299 2.567 1.332 5 2.98 7.017M25 12l-6 9h4v6l6-9h-4z"
    clip-rule="evenodd"
  />
  <path d="M17 37a1 1 0 0 1 1-1h12a1 1 0 1 1 0 2H18a1 1 0 0 1-1-1" />
  <path d="M31 40H17v2a2 2 0 0 0 2 2h10a2 2 0 0 0 2-2z" />
</svg>
